actions/24/mail-reply-list.svg

<svg xmlns="http://www.w3.org/2000/svg" viewBox="0 0 24 24" width="24" height="24">
  <defs id="defs3051">
    <style type="text/css" id="current-color-scheme">.ColorScheme-Text {color:#fcfcfc;}</style>
  </defs>
  <g transform="translate(1,1)">
    <path style="fill:currentColor;fill-opacity:1;stroke:none" d="m 1,5 v 7 H 2 V 4.2226562 4 h 0.048828 L 2.2714844,4.2226562 8.0234375,9.9765625 6,12 H 7.4140625 L 8.7304688,10.683594 10.183594,12.134766 11,12.949219 h 0.002 L 11.816406,12.134766 13.269531,10.683594 14.585938,12 H 16 L 13.976562,9.9765625 19.728516,4.2226562 19.951172,4 H 20 V 4.2226562 12 h 1 V 5 C 21,5 21,3 19,3 17,3 5,3 3,3 1,3 1,5 1,5 Z M 3.4628906,4 H 18.537109 L 11,11.537109 Z M 4,13 1,16 4,19 V 17 H 5 6 V 15 H 5 4 Z m 11,1 v 1 h 6 v -1 z m 0,2 v 1 h 6 v -1 z m -7,2 v 1 h 6 v -1 z m 7,0 v 1 h 6 v -1 z" class="ColorScheme-Text"/>
  </g>
</svg>

<svg xmlns="http://www.w3.org/2000/svg" viewBox="0 0 24 24" width="24" height="24">
  <defs id="defs3051">
    <style type="text/css" id="current-color-scheme">
      .ColorScheme-Text {
        color:#eff0f1;
      }
      </style>
  </defs>
  <g transform="translate(1,1)">
    <path style="fill:currentColor;fill-opacity:1;stroke:none" d="M 1 3 L 1 12 L 2 12 L 2 4.2226562 L 2 4 L 2.0488281 4 L 2.2714844 4.2226562 L 8.0234375 9.9765625 L 6 12 L 7.4140625 12 L 8.7304688 10.683594 L 10.183594 12.134766 L 11 12.949219 L 11.001953 12.949219 L 11.816406 12.134766 L 13.269531 10.683594 L 14.585938 12 L 16 12 L 13.976562 9.9765625 L 19.728516 4.2226562 L 19.951172 4 L 20 4 L 20 4.2226562 L 20 12 L 21 12 L 21 4 L 21 3 L 20 3 L 19.537109 3 L 2.4628906 3 L 2 3 L 1.0488281 3 L 1 3 z M 3.4628906 4 L 18.537109 4 L 11 11.537109 L 3.4628906 4 z M 4 13 L 1 16 L 4 19 L 4 17 L 5 17 L 6 17 L 6 15 L 5 15 L 4 15 L 4 13 z M 15 14 L 15 15 L 21 15 L 21 14 L 15 14 z M 15 16 L 15 17 L 21 17 L 21 16 L 15 16 z M 8 18 L 8 19 L 14 19 L 14 18 L 8 18 z M 15 18 L 15 19 L 21 19 L 21 18 L 15 18 z " class="ColorScheme-Text"/>
  </g>
</svg>
